dist/svgs/carbon-icons/svg/header-docs.svg

<?xml version="1.0" encoding="UTF-8"?>
<svg width="20px" height="20px" viewBox="0 0 20 20" version="1.1" xmlns="http://www.w3.org/2000/svg" xmlns:xlink="http://www.w3.org/1999/xlink">
    <!-- Generator: Sketch 50 (54983) - http://www.bohemiancoding.com/sketch -->
    <title>Docs2 - 1px</title>
    <desc>Created with Sketch.</desc>
    <defs></defs>
    <g id="Docs2---1px" stroke="none" stroke-width="1" fill="none" fill-rule="evenodd">
        <path d="M5,2 L12,2 L16,6 L16,17 C16,17.5522847 15.5522847,18 15,18 L5,18 C4.44771525,18 4,17.5522847 4,17 L4,3 C4,2.44771525 4.44771525,2 5,2 Z M11.5857864,3 L5,3 L5,17 L15,17 L15,6.41421356 L11.5857864,3 Z M14.9968895,5.99688951 L16,7 L12.037055,6.98773046 C11.4899019,6.98603644 11.0457035,6.5449187 11.0402016,5.99779069 L11,2 L12.0102092,3.01020917 L12.040151,5.98773525 L14.9968895,5.99688951 Z M16,7 L12.037055,6.98773046 C11.4899019,6.98603644 11.0457035,6.5449187 11.0402016,5.99779069 L11,2 L12.0102092,3.01020917 L12.040151,5.98773525 L14.9968895,5.99688951 L16,7 Z" id="Rectangle-4" fill="#000000" fill-rule="nonzero"></path>
        <rect id="Rectangle-6" fill="#000000" x="7" y="11" width="6" height="1"></rect>
        <rect id="Rectangle-6" fill="#000000" x="7" y="14" width="6" height="1"></rect>
    </g>
</svg>

<svg xmlns="http://www.w3.org/2000/svg" viewBox="0 0 20 20"><g fill-rule="evenodd"><path fill-rule="nonzero" d="M5 2h7l4 4v11a1 1 0 01-1 1H5a1 1 0 01-1-1V3a1 1 0 011-1zm6.586 1H5v14h10V6.414L11.586 3zm3.41 2.997L16 7l-3.963-.012a1 1 0 01-.997-.99L11 2l1.01 1.01.03 2.978 2.957.009zM16 7l-3.963-.012a1 1 0 01-.997-.99L11 2l1.01 1.01.03 2.978 2.957.009L16 7z"/><path d="M7 11h6v1H7zm0 3h6v1H7z"/></g></svg>
